dist/svgs/devui-icons/op/add-interface-use-case.svg

<?xml version="1.0" encoding="UTF-8"?>
<svg width="16px" height="16px" viewBox="0 0 16 16" version="1.1" xmlns="http://www.w3.org/2000/svg" xmlns:xlink="http://www.w3.org/1999/xlink">
    <title>添加接口用例</title>
    <desc>Created with Sketch.</desc>
    <g id="添加接口用例" stroke="none" stroke-width="1" fill="none" fill-rule="evenodd">
        <g fill-rule="nonzero">
            <path d="M10,3 L10,0 L12,0 L12,3 L15,3 L15,8 C15,11.5264719 12.3922941,14.4438815 9,14.9291111 L9,16 L7,16 L7,14.9291111 C3.60770586,14.4438815 1,11.5264719 1,8 L1,3 L4,3 L4,0 L6,0 L6,3 L10,3 Z M7,8 L5,8 L5,10 L7,10 L7,12 L9,12 L9,10 L11,10 L11,8 L9,8 L9,6 L7,6 L7,8 Z" id="合并形状" fill="#293040"></path>
        </g>
    </g>
</svg>

<svg xmlns="http://www.w3.org/2000/svg" viewBox="0 0 16 16"><path d="M10 3V0h2v3h3v5a7.002 7.002 0 01-6 6.93V16H7v-1.07A7.002 7.002 0 011 8V3h3V0h2v3h4zM7 8H5v2h2v2h2v-2h2V8H9V6H7v2z"/></svg>
